X:1
T:Can't Help Falling In Love
C:George Weiss, Hugo Peretti and Luigi Creatore
N:1961
M:C
L:1/4
Q:1/4=80
K:D
|:"D"[D2A,2F,2] "F#m"[A2C2F,2]|"Bm"[D3B,3F,3] E/2F/2|"G"[G2B,2D,2] "D"[F2A,2D,2]
w:Wise men say on-ly fools rush
w:Shall I stay Would it be a
|"A7"[E7/2C7/2G,7/2] A,/2|"G"[D,2B,2G,2] "A7"[E,2C2G,2]
w:in but I can't
w:sin If I can't
|"D"[D2A,2F,2] (3"Em"[EB,E,][FB,E,][GB,E,]|"D"[F2A,2D,2] "A7"[EA,2E,2]|"D"[D4A,4D,4]
w:help fall-ing in love with you
w:help fall-ing in love with you
:|"F#m"[C/2F,/2][F/2C/2F,/2] [A/2C/2F,/2]^c/2 "C#7"[B2D2G,2]
w:Like a riv-er flows
|"F#m"[C/2F,/2][F/2C/2F,/2] [A/2C/2F,/2]^c/2 "C#7"[B2D2G,2]
w:sure-ly to the sea,
|"F#m"[C/2F,/2][F/2C/2F,/2] [A/2C/2F,/2]^c/2 "C#7"[B2D2G,2]
w:Darl-ing so it goes.
|"F#m"[ACF,] [ACF,]-[A/2C/2F,/2][F/2C/2F,/2] [A/2C/2F,/2][F/2C/2F,/2]
w:Some things_ are meant to
|"Em/A"[G2B,2D,2]-"A7"[G2A,2E,2]
w:be._
|:"D"[D2A,2F,2] "F#m"[A2C2F,2]|"Bm"[D3B,3F,3] E/2F/2|"G"[G2B,2D,2] "D"[F2A,2D,2]
w:Take my hand, take my whole life
|"A7"[E7/2C7/2G,7/2]"@TAG"A,/2|"G"[D,2B,2G,2] "A7"[E,2C2G,2]
w:too. For I can't
|"D"[D2A,2F,2] (3"Em"[EB,E,][FB,E,][GB,E,]|"D"[F2A,2D,2] "A7"[EA,2E,2]|"D"[D4A,4D,4]
w:help fall-ing in love with you
:|

